X:180
T:Reel 180
M:4/4
K:Dmaj
L:1/8
A,2|D2FD EDA,B,|DEFA BdAF|G2GE FEED|B,DED EGFE|D2FD EDB,A,|D2FA dBAF|G2BG F2AF|EDB,C D2|FA|d2d2 BAFA|d2cd BAFA|G2BG F2AF|EDED EDB,2|d2dc BAFA|BcdB AFED|B,DED EDEF|EDB,C D2|
